src/images/header-icon-location.svg

<svg width="20" height="20" viewBox="0 0 20 20" fill="none" xmlns="http://www.w3.org/2000/svg">
<path fill-rule="evenodd" clip-rule="evenodd" d="M9.71224 3.5472C7.08889 3.5472 4.96224 5.67385 4.96224 8.2972C4.96224 9.11093 5.25036 10.0205 5.73926 10.9634C6.22461 11.8994 6.88092 12.817 7.55252 13.6325C8.22218 14.4456 8.89405 15.1417 9.39936 15.635C9.51297 15.7459 9.61792 15.8463 9.71224 15.9353C9.80656 15.8463 9.9115 15.7459 10.0251 15.635C10.5304 15.1417 11.2023 14.4456 11.872 13.6325C12.5436 12.817 13.1999 11.8994 13.6852 10.9634C14.1741 10.0205 14.4622 9.11093 14.4622 8.2972C14.4622 5.67385 12.3356 3.5472 9.71224 3.5472ZM9.71224 17.0055C9.19703 17.6066 9.19689 17.6065 9.19672 17.6064L9.19505 17.6049L9.19106 17.6015L9.17717 17.5894C9.16534 17.5792 9.1484 17.5644 9.12669 17.5453C9.08327 17.507 9.02077 17.4514 8.94189 17.3798C8.78419 17.2365 8.56071 17.029 8.29335 16.768C7.75959 16.247 7.04605 15.5081 6.33029 14.639C5.61648 13.7722 4.88737 12.7601 4.33365 11.6922C3.78349 10.6312 3.37891 9.46264 3.37891 8.2972C3.37891 4.7994 6.21444 1.96387 9.71224 1.96387C13.21 1.96387 16.0456 4.7994 16.0456 8.2972C16.0456 9.46264 15.641 10.6312 15.0908 11.6922C14.5371 12.7601 13.808 13.7722 13.0942 14.639C12.3784 15.5081 11.6649 16.247 11.1311 16.768C10.8638 17.029 10.6403 17.2365 10.4826 17.3798C10.4037 17.4514 10.3412 17.507 10.2978 17.5453C10.2761 17.5644 10.2591 17.5792 10.2473 17.5894L10.2334 17.6015L10.2294 17.6049L10.2282 17.606C10.228 17.6061 10.2274 17.6066 9.71224 17.0055ZM9.71224 17.0055L9.19672 17.6064C9.4932 17.8605 9.93098 17.8607 10.2274 17.6066L9.71224 17.0055ZM9.71224 6.71387C8.83779 6.71387 8.12891 7.42275 8.12891 8.2972C8.12891 9.17165 8.83779 9.88053 9.71224 9.88053C10.5867 9.88053 11.2956 9.17165 11.2956 8.2972C11.2956 7.42275 10.5867 6.71387 9.71224 6.71387ZM6.54557 8.2972C6.54557 6.5483 7.96334 5.13053 9.71224 5.13053C11.4611 5.13053 12.8789 6.5483 12.8789 8.2972C12.8789 10.0461 11.4611 11.4639 9.71224 11.4639C7.96334 11.4639 6.54557 10.0461 6.54557 8.2972Z" fill="#37AEE2"/>
</svg>

<svg xmlns="http://www.w3.org/2000/svg" width="20" height="20" fill="none"><path fill="#37AEE2" fill-rule="evenodd" d="M9.712 3.547a4.75 4.75 0 0 0-4.75 4.75c0 .814.288 1.723.777 2.666.486.936 1.142 1.854 1.814 2.67a25.551 25.551 0 0 0 2.16 2.302l.312-.3a25.56 25.56 0 0 0 1.847-2.002c.672-.816 1.328-1.734 1.813-2.67.49-.942.777-1.852.777-2.666a4.75 4.75 0 0 0-4.75-4.75Zm0 13.459-.515.6-.002-.001-.004-.003-.014-.013a7.237 7.237 0 0 1-.235-.21 27.117 27.117 0 0 1-2.612-2.74c-.714-.867-1.443-1.879-1.996-2.947-.55-1.06-.955-2.23-.955-3.395a6.333 6.333 0 0 1 12.667 0c0 1.166-.405 2.334-.955 3.395-.554 1.068-1.283 2.08-1.997 2.947a27.116 27.116 0 0 1-2.847 2.95l-.014.013-.004.003v.001c-.001 0-.002 0-.517-.6Zm0 0-.515.6a.792.792 0 0 0 1.03 0l-.515-.6Zm0-10.292a1.583 1.583 0 1 0 0 3.167 1.583 1.583 0 0 0 0-3.167ZM6.546 8.297a3.167 3.167 0 1 1 6.333 0 3.167 3.167 0 0 1-6.333 0Z" clip-rule="evenodd"/></svg>
